X: 2
T: Bells of Norwich (C)
O: England
M: C|
L: 1/8
K: C
|:"C"[c4E4] "G7"[G3D3][GD] | "C"[c2E2][e2G2] [fA][eG][dF][cE] \
| [e2G2][c2E2] [e2G2]"F"[f2A2] |1 "G7"[g8B8] :|2 "C7"[g8_B8] |]
[|"F"[a4F4] [f4c4] | "C"[g2e2][g2e2] [ge][fd][e2c2] \
| "G7"[d3B3][ec] [f2d2]"C"[e2c2] | "G7"[d2B2][B2G2] [G2-G2][G2F2] \
| "C"[c4E4] [d2F2][e2G2] | "F"[fA][eG][d2-F2] "G7"[d2G2][B2F2] \
| "C"[c8-E8-] | [c4E4] z4 |]


